X: 0643
M: 2/4
L: 1/16
K: G
[d2B2][d2B2] [d3B3][dB] | [e2c2][d2B2] [c2A2][B2G2] |\
[c2A2][c2A2] [c3A3][BG] | [d2B2][c2A2] [B2G2][c2A2] |\
[d2B2][d2B2] [d3B3][dB] | [e2c2][d2B2] [c2A2][B2G2] |\
[cE]z [cE]z [c2E2] z2 | [A2F2] [A2F2] G4 |]

